src/22/actions/games-solve.svg

<svg xmlns="http://www.w3.org/2000/svg" viewBox="0 0 22 22">
  <defs id="defs3051">
    <style type="text/css" id="current-color-scheme">
      .ColorScheme-Text {
        color:#5d656b;
      }
      </style>
  </defs>
 <path 
    style="fill:currentColor;fill-opacity:1;stroke:none" 
    d="M 11 3 C 6.5680032 3 3 6.5680032 3 11 C 3 15.431997 6.5680032 19 11 19 C 15.431997 19 19 15.431997 19 11 C 19 6.5680032 15.431997 3 11 3 z M 11 4 C 14.877998 4 18 7.1220024 18 11 C 18 14.877998 14.877998 18 11 18 C 7.1220024 18 4 14.877998 4 11 C 4 7.1220024 7.1220024 4 11 4 z M 14 8 L 9 13 L 7 11 L 6 12 L 9 15 L 15 9 L 14 8 z "
    class="ColorScheme-Text"
    />  
</svg>

<svg xmlns="http://www.w3.org/2000/svg" viewBox="0 0 22 22"><path d="M11 3c-4.432 0-8 3.568-8 8s3.568 8 8 8 8-3.568 8-8-3.568-8-8-8zm0 1c3.878 0 7 3.122 7 7s-3.122 7-7 7-7-3.122-7-7 3.122-7 7-7zm3 4l-5 5-2-2-1 1 3 3 6-6-1-1z" fill="currentColor" color="#5d656b"/></svg>
